svgs/thin/book-bookmark.svg

<svg xmlns="http://www.w3.org/2000/svg" viewBox="0 0 448 512"><!--! Font Awesome Pro 6.3.0 by @fontawesome - https://fontawesome.com License - https://fontawesome.com/license (Commercial License) Copyright 2023 Fonticons, Inc. --><path d="M448 384V32c0-17.67-14.33-32-32-32H64C28.66 0 0 28.65 0 64v391.1c0 30.93 25.07 56 56 56L439.1 512C444.4 512 448 508.4 448 504c0-4.422-3.586-8.008-8.008-8.008H416v-79.99C433.7 416 448 401.7 448 384zM176 16h160v215.1l-74.94-61.31C259.6 168.6 257.8 168 256 168s-3.594 .6094-5.062 1.812L176 231.1V16zM400 495.1H56c-23.38 0-42.13-20.14-39.8-43.99c2.016-20.78 20.7-36.02 41.57-36.02L400 416V495.1zM56 399.1c-15.68 0-29.82 6.516-40 16.93V64c0-26.47 21.53-48 48-48h96v232c0 3.094 1.781 5.906 4.562 7.234c2.812 1.344 6.094 .9062 8.5-1.047L256 186.3l82.94 67.84C340.4 255.4 342.2 256 344 256c1.156 0 2.344-.25 3.438-.7656C350.2 253.9 352 251.1 352 248V16h64c8.836 0 16 7.164 16 16v352c0 8.824-7.18 15.1-16 15.1L56 399.1z"/></svg>

<svg xmlns="http://www.w3.org/2000/svg" viewBox="0 0 448 512"><!-- Font Awesome Pro 6.0.0-alpha2 by @fontawesome - https://fontawesome.com License - https://fontawesome.com/license (Commercial License) --><path d="M448 384.006V32C448 14.328 433.672 0 416 0H64C28.656 0 0 28.652 0 64V455.99C0 486.918 25.07 511.992 56 511.992L439.992 512C444.414 512.004 448 508.418 448 504C448 499.578 444.414 495.992 439.992 495.992H416V416.006C433.672 416.006 448 401.678 448 384.006ZM176 16H336V231.125L261.062 169.812C259.594 168.609 257.781 168 256 168S252.406 168.609 250.938 169.812L176 231.125V16ZM400 495.992H56C32.625 495.992 13.875 475.85 16.195 452.006C18.211 431.225 36.891 415.99 57.77 415.99L400 416.006V495.992ZM56 399.994C40.324 399.994 26.176 406.51 16 416.928V64C16 37.531 37.531 16 64 16H160V248C160 251.094 161.781 253.906 164.562 255.234C167.375 256.578 170.656 256.141 173.062 254.188L256 186.344L338.938 254.188C340.406 255.391 342.188 256 344 256C345.156 256 346.344 255.75 347.438 255.234C350.219 253.906 352 251.094 352 248V16H416C424.836 16 432 23.164 432 32V384.006C432 392.83 424.82 400.006 416 400.006L56 399.994Z"/></svg>
